X:654
T:Polska # 654
S:efter Anders Gustaf Andersson
B:Sörmlands musikarkiv - Anders Gustaf Andersson, Nora (pdf), nr 654
O:Mörkö, Södermanland
R:Hamburska
N: https://www.youtube.com/watch?v=3w_axY2SedM
M:3/4
L:1/16
K:D
Q:110
d4 (F2d2) (F2d2) | e4 (E2e2) (E2e2) | c3(d c2)A2 B2c2 |d2c2 d2f2 A4|d4 (F2d2) (F2d2) |
e4 (E2e2) (E2e2) | c3(d c2)A2 B2c2 | c2d2 d8 :|: A4 {fg}f2e2 f2(g2| a4) g2{ag}f2 g2f2| e2(d2 c2)A2 B2c2 |
(d2c2) d2f2 A4| A4 {fg}f2e2 f2(g2| a4) g2{ag}f2 g2f2| e2(d2 c2)A2 B2c2| d4d4z4:|

